Newaita/actions/16/format-text-larger.svg

<svg height="16" viewBox="0 0 16 16" width="16" xmlns="http://www.w3.org/2000/svg"><path d="m7.9375 2.9375c-1.472656 0-2.753906.597656-3.441406 1.488281l1.101562.6875c.417969-.511719 1.222656-.855469 2.148438-.855469h.382812c1.359375 0 2.457032.738282 2.457032 1.65625v1.984376c-.703126-.46875-1.628907-.753907-2.648438-.753907-2.199219 0-3.96875 1.328125-3.96875 2.976563v.328125h.023438c.21875 1.496093 1.894531 2.648437 3.945312 2.648437 1.019531 0 1.945312-.285156 2.648438-.753906v.679688h1.320312v-7.109376c0-1.648437-1.769531-2.976562-3.96875-2.976562zm-.191406 5.527344h.382812c1.359375 0 2.457032.738281 2.457032 1.65625 0 .914062-1.097657 1.652344-2.457032 1.652344h-.382812c-1.359375 0-2.453125-.738282-2.453125-1.652344 0-.917969 1.09375-1.65625 2.453125-1.65625zm0 0" fill="#424242"/></svg>

<svg xmlns="http://www.w3.org/2000/svg" xmlns:xlink="http://www.w3.org/1999/xlink" width="16px" height="16px" viewBox="0 0 16 16" version="1.1">
<g id="surface1">
     <defs>
  <style id="current-color-scheme" type="text/css">
   .ColorScheme-Text { color:#424242; } .ColorScheme-Highlight { color:#eeeeee; }
  </style>
 </defs>
<path style="fill:currentColor" class="ColorScheme-Text" d="M 7.9375 2.9375 C 6.464844 2.9375 5.183594 3.535156 4.496094 4.425781 L 5.597656 5.113281 C 6.015625 4.601562 6.820312 4.257812 7.746094 4.257812 L 8.128906 4.257812 C 9.488281 4.257812 10.585938 4.996094 10.585938 5.914062 L 10.585938 7.898438 C 9.882812 7.429688 8.957031 7.144531 7.9375 7.144531 C 5.738281 7.144531 3.96875 8.472656 3.96875 10.121094 L 3.96875 10.449219 L 3.992188 10.449219 C 4.210938 11.945312 5.886719 13.097656 7.9375 13.097656 C 8.957031 13.097656 9.882812 12.8125 10.585938 12.34375 L 10.585938 13.023438 L 11.90625 13.023438 L 11.90625 5.914062 C 11.90625 4.265625 10.136719 2.9375 7.9375 2.9375 Z M 7.746094 8.464844 L 8.128906 8.464844 C 9.488281 8.464844 10.585938 9.203125 10.585938 10.121094 C 10.585938 11.035156 9.488281 11.773438 8.128906 11.773438 L 7.746094 11.773438 C 6.386719 11.773438 5.292969 11.035156 5.292969 10.121094 C 5.292969 9.203125 6.386719 8.464844 7.746094 8.464844 Z M 7.746094 8.464844 "/>
</g>
</svg>
